build/images/content/features/icon_8.svg

<svg width="70" height="70" viewBox="0 0 70 70" fill="none" xmlns="http://www.w3.org/2000/svg">
<path d="M60.6008 41.1997C61.8008 38.8997 61.8008 36.1997 60.7008 33.7997C62.6008 31.9997 63.7008 29.4997 63.5008 26.8997C63.3008 24.2997 62.0008 21.8997 59.9008 20.4997C60.7008 17.9997 60.4008 15.2997 58.9008 13.1997C57.5008 10.9997 55.2008 9.69968 52.6008 9.49968C52.1008 6.89968 50.4008 4.79968 48.1008 3.69968C45.8008 2.59968 43.1008 2.49968 40.7008 3.59968C39.0008 1.69968 36.5008 0.599677 33.9008 0.799677C31.3008 0.999677 29.0008 2.29968 27.5008 4.49968C25.0008 3.69968 22.4008 4.09968 20.2008 5.49968C18.0008 6.99968 16.7008 9.29968 16.4008 11.8997C13.9008 12.3997 11.7008 14.0997 10.6008 16.3997C9.40078 18.6997 9.40078 21.3997 10.5008 23.7997C8.60078 25.5997 7.50078 28.0997 7.70078 30.6997C7.90078 33.2997 9.20078 35.6997 11.3008 37.0997C10.5008 39.5997 10.8008 42.2997 12.3008 44.3997C12.6008 44.8997 13.0008 45.3997 13.4008 45.7997L7.30078 58.0997L10.5008 59.6997L19.7008 60.7997L26.1008 67.4997L29.3008 69.0997L35.0008 57.8997L40.6008 69.0997L43.8008 67.4997L50.2008 60.7997L59.4008 59.6997L62.6008 58.0997L56.1008 45.2997C58.1008 44.5997 59.7008 43.0997 60.6008 41.1997ZM27.8008 63.4997L21.6008 56.9997L12.7008 55.9997L16.8008 47.7997C17.4008 47.9997 18.0008 48.0997 18.7008 48.1997C19.2008 50.7997 20.9008 52.8997 23.2008 53.9997C25.5008 55.1997 28.2008 55.1997 30.6008 54.0997C31.0008 54.5997 31.5008 54.9997 32.0008 55.3997L27.8008 63.4997ZM28.8008 50.4997C27.5008 51.0997 26.1008 51.0997 24.8008 50.4997C23.5008 49.8997 22.7008 48.6997 22.4008 47.3997C22.2008 46.1997 21.4008 45.1997 20.3008 44.6997C19.9008 44.4997 19.4008 44.2997 18.9008 44.2997C17.5008 44.1997 16.3008 43.4997 15.5008 42.2997C14.7008 41.0997 14.5008 39.6997 15.0008 38.3997C15.5008 36.6997 15.0008 34.9997 13.5008 33.9997C12.4008 33.1997 11.6008 31.8997 11.6008 30.4997C11.6008 29.0997 12.1008 27.7997 13.1008 26.7997C14.4008 25.5997 14.8008 23.7997 14.0008 22.1997C13.4008 20.8997 13.4008 19.4997 14.1008 18.1997C14.7008 16.8997 15.9008 15.9997 17.2008 15.7997C18.9008 15.3997 20.1008 13.9997 20.3008 12.2997C20.4008 10.8997 21.2008 9.59968 22.3008 8.89968C23.5008 8.09968 24.9008 7.89968 26.2008 8.39968C27.9008 8.89968 29.6008 8.29968 30.6008 6.89968C31.4008 5.69968 32.7008 4.99968 34.1008 4.89968C35.5008 4.79968 36.8008 5.39968 37.8008 6.39968C39.0008 7.69968 40.8008 8.09968 42.4008 7.29968C43.7008 6.69968 45.1008 6.69968 46.4008 7.29968C47.7008 7.89968 48.5008 9.09968 48.8008 10.3997C49.2008 12.0997 50.6008 13.2997 52.3008 13.4997C53.7008 13.5997 54.9008 14.2997 55.7008 15.4997C56.5008 16.6997 56.7008 18.0997 56.2008 19.3997C55.7008 21.0997 56.2008 22.7997 57.7008 23.7997C58.8008 24.5997 59.6008 25.8997 59.6008 27.2997C59.7008 28.6997 59.1008 29.9997 58.1008 30.9997C56.8008 32.1997 56.4008 33.9997 57.2008 35.5997C57.8008 36.8997 57.8008 38.2997 57.1008 39.5997C56.5008 40.8997 55.3008 41.7997 54.0008 41.9997C52.3008 42.3997 51.1008 43.7997 50.9008 45.4997C50.8008 46.8997 50.0008 48.1997 48.9008 48.8997C47.7008 49.6997 46.3008 49.8997 45.0008 49.3997C43.3008 48.8997 41.6008 49.4997 40.6008 50.8997C39.8008 52.0997 38.5008 52.7997 37.1008 52.8997C35.7008 52.9997 34.4008 52.3997 33.4008 51.3997C32.2008 50.0997 30.4008 49.7997 28.8008 50.4997ZM48.3008 57.0997L42.1008 63.5997L38.7008 56.6997C40.7008 56.1997 42.5008 54.9997 43.7008 53.2997C46.2008 54.0997 48.8008 53.6997 51.0008 52.2997C52.2008 51.4997 53.1008 50.4997 53.7008 49.2997L57.2008 56.0997L48.3008 57.0997Z" fill="#4283D0"/>
<path d="M32.0012 20.5998C33.1012 21.1998 34.1012 21.4998 36.0012 22.0998C37.1012 22.3998 37.7012 22.5998 38.2012 22.7998C39.4012 23.2998 40.0012 23.7998 40.2012 24.4998C40.4012 25.0998 40.3012 26.4998 40.0012 27.4998C39.9012 27.7998 39.6012 28.3998 39.4012 28.5998C39.2012 28.8998 38.7012 29.3998 38.3012 29.6998C38.0012 29.8998 37.5012 30.1998 37.0012 30.3998L36.8012 30.4998V31.3998V32.2998H37.0012C38.9012 31.9998 40.6012 30.8998 41.8012 29.1998C42.3012 28.4998 42.6012 27.7998 42.8012 26.9998C43.0012 26.0998 43.0012 24.9998 42.8012 24.1998C42.5012 22.8998 41.5012 21.8998 39.9012 21.2998C39.1012 20.9998 38.3012 20.7998 36.7012 20.4998C35.8012 20.2998 35.1012 20.1998 34.4012 19.9998C32.0012 19.1998 30.8012 17.8998 30.8012 16.0998C30.8012 14.5998 31.6012 13.3998 32.8012 13.1998C33.1012 13.0998 33.6012 13.0998 33.9012 13.1998C34.6012 13.2998 35.1012 13.5998 35.5012 14.0998C35.7012 14.3998 35.9012 14.7998 36.0012 15.0998C36.0012 15.1998 36.0012 15.2998 35.7012 15.4998C35.3012 15.7998 35.2012 15.9998 35.2012 16.2998C35.2012 16.6998 35.3012 17.0998 35.6012 17.4998C35.8012 17.7998 36.3012 18.4998 36.5012 18.6998C36.7012 18.8998 36.9012 18.9998 37.1012 18.9998C37.4012 18.9998 37.7012 18.5998 37.9012 17.8998C37.9012 17.7998 38.0012 17.3998 38.1012 17.1998C38.3012 16.3998 38.3012 16.0998 38.2012 15.7998C38.1012 15.5998 38.0012 15.3998 37.7012 15.2998C37.4012 15.1998 37.4012 15.0998 37.3012 14.6998C37.1012 14.0998 36.9012 13.6998 36.7012 13.3998C36.2012 12.5998 35.4012 12.0998 34.4012 11.8998C34.1012 11.7998 33.4012 11.7998 33.1012 11.7998C31.9012 11.9998 30.7012 12.6998 30.0012 13.6998C29.4012 14.4998 29.2012 15.2998 29.2012 16.4998C29.2012 17.6998 29.5012 18.5998 30.2012 19.2998C30.5012 19.6998 31.0012 20.0998 32.0012 20.5998Z" fill="#4283D0"/>
<path d="M32.8008 30.0998C33.4008 30.1998 33.8008 30.2998 34.8008 30.3998H35.0008V32.9998V35.6998H35.1008C35.2008 35.6998 36.2008 35.7998 36.3008 35.6998H36.4008V32.8998V30.0998L36.7008 29.9998C37.5008 29.7998 38.3008 29.2998 38.8008 28.6998C39.4008 27.9998 39.7008 27.1998 39.9008 26.1998C40.0008 25.7998 40.0008 24.8998 40.0008 24.6998C39.9008 24.3998 39.7008 24.0998 39.5008 23.8998L39.4008 23.7998H30.1008H20.8008V23.8998C20.8008 23.9998 21.0008 24.2998 21.1008 24.3998C21.5008 24.7998 22.1008 24.9998 22.8008 24.9998C23.8008 25.0998 24.7008 25.3998 25.7008 25.7998C26.4008 26.0998 26.9008 26.4998 27.7008 27.0998C28.7008 27.8998 29.5008 28.4998 30.1008 28.7998C30.6008 29.4998 31.7008 29.8998 32.8008 30.0998Z" fill="#4283D0"/>
<path d="M43.3004 24.2994C43.4004 24.5994 43.4004 24.6994 43.4004 25.2994C43.4004 25.8994 43.4004 26.0994 43.4004 26.2994C43.3004 26.8994 43.1004 27.4994 43.0004 27.8994C43.0004 27.9994 42.9004 28.0994 42.9004 28.0994C42.9004 28.0994 43.2004 27.8994 44.0004 27.2994C45.0004 26.4994 45.5004 26.1994 46.2004 25.8994C47.2004 25.3994 48.1004 25.0994 49.1004 25.0994C49.8004 24.9994 50.4004 24.7994 50.8004 24.4994C50.9004 24.3994 51.1004 24.0994 51.1004 23.9994V23.8994H47.0004C44.9004 23.8994 43.2004 23.8994 43.2004 23.8994V23.9994C43.2004 23.9994 43.2004 24.1994 43.3004 24.2994Z" fill="#4283D0"/>
<path d="M40.9013 34.9994C41.0013 34.7994 41.0013 34.6994 41.0013 34.3994C41.0013 34.0994 41.0013 33.9994 40.9013 33.7994C40.8013 33.4994 40.8013 33.3994 40.6013 33.1994C40.4013 32.9994 40.2013 32.8994 39.9013 32.7994C39.0013 32.4994 38.3013 32.4994 36.9013 32.8994H36.8013V33.4994C36.8013 33.9994 36.8013 34.0994 36.8013 34.0994C36.9013 33.9994 37.3013 33.9994 37.6013 33.9994C38.0013 33.9994 38.1013 33.9994 38.3013 34.1994C38.4013 34.2994 38.5013 34.4994 38.5013 34.7994C38.5013 35.0994 38.4013 35.1994 38.3013 35.3994C38.0013 35.6994 37.5013 35.9994 36.8013 36.0994C36.5013 36.1994 35.5013 36.1994 35.2013 36.0994C34.5013 35.9994 34.0013 35.7994 33.6013 35.3994C33.3013 35.0994 33.1013 34.6994 33.2013 34.0994C33.3013 33.4994 33.4013 33.1994 33.7013 32.8994C33.9013 32.6994 34.1013 32.5994 34.4013 32.4994L34.6013 32.3994V31.3994V30.3994H34.5013H34.4013C33.6013 30.4994 32.9013 30.8994 32.4013 31.3994C31.7013 31.9994 31.3013 32.6994 31.2013 33.4994C31.1013 33.8994 31.2013 34.5994 31.4013 35.0994C31.7013 35.9994 32.5013 36.6994 33.7013 37.1994C34.3013 37.3994 34.9013 37.5994 35.4013 37.5994C37.7013 37.9994 40.4013 36.6994 40.9013 34.9994Z" fill="#4283D0"/>
<path d="M33.7 34.3998L33.5 34.5998V34.6998C33.5 34.8998 33.6 34.9998 33.8 35.1998C34 35.3998 34 35.3998 34.2 35.2998C34.3 35.1998 34.4 35.1998 34.4 35.0998L34.5 34.9998V34.3998C34.5 34.0998 34.5 33.7998 34.5 33.7998C34.5 33.7998 34.4 33.8998 34.2 33.9998C34.1 34.0998 33.8 34.2998 33.7 34.3998Z" fill="#4283D0"/>
<path d="M33.5 37.9996V37.7996L33.3 37.6996C33 37.5996 32.6 37.3996 32.4 37.1996L32.2 37.0996V37.1996C32 37.5996 32 37.8996 32 38.3996C32 38.8996 32 38.8996 32.1 39.1996C32.4 40.1996 33.2 40.8996 34.6 41.2996C35.3 41.4996 35.8 41.5996 38 41.7996C38.8 41.8996 38.8 41.8996 39 41.9996C39.1 41.9996 39.2 42.0996 39.3 42.1996C39.5 42.3996 39.6 42.3996 39.7 42.3996C39.8 42.3996 39.8 42.3996 39.9 42.2996C40 42.1996 40 42.1996 39.9 41.9996C39.8 41.5996 39.2 41.1996 38.5 40.9996C38 40.8996 37.8 40.7996 36.3 40.5996C35.5 40.4996 35 40.2996 34.6 39.9996C33.9 39.5996 33.6 38.9996 33.5 37.9996Z" fill="#4283D0"/>
<path d="M36.3004 40.1992C36.3004 40.1992 36.3004 40.0992 36.3004 39.1992V38.1992H35.7004C35.4004 38.1992 35.1004 38.1992 35.0004 38.1992H34.9004V38.9992V39.8992L35.1004 39.9992C35.2004 40.0992 35.4004 40.0992 35.5004 40.0992C35.7004 40.0992 36.2004 40.1992 36.3004 40.1992Z" fill="#4283D0"/>
<path d="M42.4008 45.3994C42.1008 45.2994 41.9008 45.2994 41.2008 45.1994C40.8008 45.1994 40.5008 45.0994 40.4008 45.0994C40.2008 45.0994 39.9008 44.9994 39.8008 44.8994C39.7008 44.7994 39.4008 44.6994 39.2008 44.5994C38.9008 44.4994 38.6008 44.3994 38.0008 44.2994C37.1008 44.0994 36.7008 43.9994 36.5008 43.6994C36.3008 43.4994 36.3008 43.4994 36.3008 42.6994C36.3008 42.1994 36.3008 41.9994 36.3008 41.9994C36.2008 41.9994 35.4008 41.8994 35.3008 41.8994C35.2008 41.8994 35.1008 41.8994 35.1008 41.8994C35.1008 41.8994 35.1008 42.0994 35.1008 42.6994C35.1008 43.4994 35.1008 43.5994 34.9008 43.7994C34.7008 44.0994 34.3008 44.1994 33.4008 44.3994C32.8008 44.4994 32.5008 44.5994 32.2008 44.6994C31.9008 44.7994 31.6008 44.9994 31.6008 44.9994C31.5008 45.0994 31.1008 45.1994 30.1008 45.2994C29.4008 45.3994 29.1008 45.3994 28.7008 45.5994C28.5008 45.6994 28.3008 45.7994 28.3008 45.8994C28.3008 45.8994 29.3008 45.8994 35.8008 45.8994C42.3008 45.8994 43.3008 45.8994 43.3008 45.8994C43.1008 45.7994 42.8008 45.4994 42.4008 45.3994Z" fill="#4283D0"/>
</svg>

<svg width="70" height="70" fill="none" xmlns="http://www.w3.org/2000/svg"><path d="M60.6 41.2c1.2-2.3 1.2-5 .1-7.4 1.9-1.8 3-4.3 2.8-6.9-.2-2.6-1.5-5-3.6-6.4.8-2.5.5-5.2-1-7.3-1.4-2.2-3.7-3.5-6.3-3.7-.5-2.6-2.2-4.7-4.5-5.8-2.3-1.1-5-1.2-7.4-.1C39 1.7 36.5.6 33.9.8c-2.6.2-4.9 1.5-6.4 3.7-2.5-.8-5.1-.4-7.3 1-2.2 1.5-3.5 3.8-3.8 6.4-2.5.5-4.7 2.2-5.8 4.5-1.2 2.3-1.2 5-.1 7.4-1.9 1.8-3 4.3-2.8 6.9.2 2.6 1.5 5 3.6 6.4-.8 2.5-.5 5.2 1 7.3.3.5.7 1 1.1 1.4L7.3 58.1l3.2 1.6 9.2 1.1 6.4 6.7 3.2 1.6L35 57.9l5.6 11.2 3.2-1.6 6.4-6.7 9.2-1.1 3.2-1.6-6.5-12.8c2-.7 3.6-2.2 4.5-4.1zM27.8 63.5L21.6 57l-8.9-1 4.1-8.2c.6.2 1.2.3 1.9.4.5 2.6 2.2 4.7 4.5 5.8 2.3 1.2 5 1.2 7.4.1.4.5.9.9 1.4 1.3l-4.2 8.1zm1-13c-1.3.6-2.7.6-4 0-1.3-.6-2.1-1.8-2.4-3.1-.2-1.2-1-2.2-2.1-2.7-.4-.2-.9-.4-1.4-.4-1.4-.1-2.6-.8-3.4-2-.8-1.2-1-2.6-.5-3.9.5-1.7 0-3.4-1.5-4.4-1.1-.8-1.9-2.1-1.9-3.5s.5-2.7 1.5-3.7c1.3-1.2 1.7-3 .9-4.6-.6-1.3-.6-2.7.1-4 .6-1.3 1.8-2.2 3.1-2.4 1.7-.4 2.9-1.8 3.1-3.5.1-1.4.9-2.7 2-3.4 1.2-.8 2.6-1 3.9-.5 1.7.5 3.4-.1 4.4-1.5.8-1.2 2.1-1.9 3.5-2 1.4-.1 2.7.5 3.7 1.5 1.2 1.3 3 1.7 4.6.9 1.3-.6 2.7-.6 4 0 1.3.6 2.1 1.8 2.4 3.1.4 1.7 1.8 2.9 3.5 3.1 1.4.1 2.6.8 3.4 2 .8 1.2 1 2.6.5 3.9-.5 1.7 0 3.4 1.5 4.4 1.1.8 1.9 2.1 1.9 3.5.1 1.4-.5 2.7-1.5 3.7-1.3 1.2-1.7 3-.9 4.6.6 1.3.6 2.7-.1 4-.6 1.3-1.8 2.2-3.1 2.4-1.7.4-2.9 1.8-3.1 3.5-.1 1.4-.9 2.7-2 3.4-1.2.8-2.6 1-3.9.5-1.7-.5-3.4.1-4.4 1.5-.8 1.2-2.1 1.9-3.5 2-1.4.1-2.7-.5-3.7-1.5-1.2-1.3-3-1.6-4.6-.9zm19.5 6.6l-6.2 6.5-3.4-6.9c2-.5 3.8-1.7 5-3.4 2.5.8 5.1.4 7.3-1 1.2-.8 2.1-1.8 2.7-3l3.5 6.8-8.9 1z" fill="#4283D0"/><path d="M32.001 20.6c1.1.6 2.1.9 4 1.5 1.1.3 1.7.5 2.2.7 1.2.5 1.8 1 2 1.7.2.6.1 2-.2 3-.1.3-.4.9-.6 1.1-.2.3-.7.8-1.1 1.1-.3.2-.8.5-1.3.7l-.2.1v1.8h.2c1.9-.3 3.6-1.4 4.8-3.1.5-.7.8-1.4 1-2.2.2-.9.2-2 0-2.8-.3-1.3-1.3-2.3-2.9-2.9-.8-.3-1.6-.5-3.2-.8-.9-.2-1.6-.3-2.3-.5-2.4-.8-3.6-2.1-3.6-3.9 0-1.5.8-2.7 2-2.9.3-.1.8-.1 1.1 0 .7.1 1.2.4 1.6.9.2.3.4.7.5 1 0 .1 0 .2-.3.4-.4.3-.5.5-.5.8 0 .4.1.8.4 1.2.2.3.7 1 .9 1.2.2.2.4.3.6.3.3 0 .6-.4.8-1.1 0-.1.1-.5.2-.7.2-.8.2-1.1.1-1.4-.1-.2-.2-.4-.5-.5-.3-.1-.3-.2-.4-.6-.2-.6-.4-1-.6-1.3-.5-.8-1.3-1.3-2.3-1.5-.3-.1-1-.1-1.3-.1-1.2.2-2.4.9-3.1 1.9-.6.8-.8 1.6-.8 2.8 0 1.2.3 2.1 1 2.8.3.4.8.8 1.8 1.3z" fill="#4283D0"/><path d="M32.8 30.1c.6.1 1 .2 2 .3h.2v5.3h.1c.1 0 1.1.1 1.2 0h.1v-5.6l.3-.1c.8-.2 1.6-.7 2.1-1.3.6-.7.9-1.5 1.1-2.5.1-.4.1-1.3.1-1.5-.1-.3-.3-.6-.5-.8l-.1-.1H20.8v.1c0 .1.2.4.3.5.4.4 1 .6 1.7.6 1 .1 1.9.4 2.9.8.7.3 1.2.7 2 1.3 1 .8 1.8 1.4 2.4 1.7.5.7 1.6 1.1 2.7 1.3zm10.5-5.8c.1.3.1.4.1 1v1c-.1.6-.3 1.2-.4 1.6 0 .1-.1.2-.1.2s.3-.2 1.1-.8c1-.8 1.5-1.1 2.2-1.4 1-.5 1.9-.8 2.9-.8.7-.1 1.3-.3 1.7-.6.1-.1.3-.4.3-.5v-.1h-7.9v.1s0 .2.1.3z" fill="#4283D0"/><path d="M40.901 35c.1-.2.1-.3.1-.6s0-.4-.1-.6c-.1-.3-.1-.4-.3-.6-.2-.2-.4-.3-.7-.4-.9-.3-1.6-.3-3 .1h-.1v1.2c.1-.1.5-.1.8-.1.4 0 .5 0 .7.2.1.1.2.3.2.6s-.1.4-.2.6c-.3.3-.8.6-1.5.7-.3.1-1.3.1-1.6 0-.7-.1-1.2-.3-1.6-.7-.3-.3-.5-.7-.4-1.3.1-.6.2-.9.5-1.2.2-.2.4-.3.7-.4l.2-.1v-2h-.2c-.8.1-1.5.5-2 1-.7.6-1.1 1.3-1.2 2.1-.1.4 0 1.1.2 1.6.3.9 1.1 1.6 2.3 2.1.6.2 1.2.4 1.7.4 2.3.4 5-.9 5.5-2.6z" fill="#4283D0"/><path d="M33.7 34.4l-.2.2v.1c0 .2.1.3.3.5.2.2.2.2.4.1.1-.1.2-.1.2-.2l.1-.1v-1.2s-.1.1-.3.2c-.1.1-.4.3-.5.4zm-.2 3.6v-.2l-.2-.1c-.3-.1-.7-.3-.9-.5l-.2-.1v.1c-.2.4-.2.7-.2 1.2s0 .5.1.8c.3 1 1.1 1.7 2.5 2.1.7.2 1.2.3 3.4.5.8.1.8.1 1 .2.1 0 .2.1.3.2.2.2.3.2.4.2.1 0 .1 0 .2-.1s.1-.1 0-.3c-.1-.4-.7-.8-1.4-1-.5-.1-.7-.2-2.2-.4-.8-.1-1.3-.3-1.7-.6-.7-.4-1-1-1.1-2z" fill="#4283D0"/><path d="M36.3 40.2v-2h-1.4v1.7l.2.1c.1.1.3.1.4.1.2 0 .7.1.8.1zm6.1 5.2c-.3-.1-.5-.1-1.2-.2-.4 0-.7-.1-.8-.1-.2 0-.5-.1-.6-.2-.1-.1-.4-.2-.6-.3-.3-.1-.6-.2-1.2-.3-.9-.2-1.3-.3-1.5-.6-.2-.2-.2-.2-.2-1V42c-.1 0-.9-.1-1-.1h-.2v.8c0 .8 0 .9-.2 1.1-.2.3-.6.4-1.5.6-.6.1-.9.2-1.2.3-.3.1-.6.3-.6.3-.1.1-.5.2-1.5.3-.7.1-1 .1-1.4.3-.2.1-.4.2-.4.3h15c-.2-.1-.5-.4-.9-.5z" fill="#4283D0"/></svg>
